!!!OTL: 11. Deutscher Trost (1813). / [Auch nach der Mel. "Sohn, da haſt du meinen Speer".]
!!!COM: F. W. Berner
!!!ODT: 1815
!!!ARE: Europa, Mitteleuropa, Deutschland
!!!SCT: B0011
!!!TXL: @@DE
!!!YEM: Copyright 1995, estate of Helmut Schaffrath.
**kern	**text
*ICvox	*
*Ivox	*
*M4/4	*
*met(c)	*
*clefG2	*
*k[b-]	*
*F:	*
!LO:TX:a:t=Ruhig.	!
{8a	Deut-
8b-/	-ſches
=1	=1
4.cc	Herʒ,
8a	ver-
4b-/	-ʒa-
4g	-ge
=2	=2
2a	nicht,
4r}	.
{8f	thu
8f	was
=3	=3
4e	dein
4f	Ge-
4b-/	-wiſ-
4a	-ſen
=4	=4
2g	ſpricht,
4r}	.
{8e	die-
8f	-ſer
=5	=5
4.g	Strahl
8g	des
(4a	Him-
8g)	.
8a	-mels-
=6	=6
2b-	-lichts
4r}	.
{8g	Thu-
8g	-e
=7	=7
4a	recht
4cc	und
4a	fürch-
4g	-te
=8	=8
2f	nichts!
4r}	.
==	==
!!!AGN: politisch, national, Vaterlands - Lied
!!!GTL: Vaterlandslieder und Heimathgrüße
!!!ONB: ESAC (Essen Associative Code) Database: BOEHME
!!!AMT: simple quadruple
!!!AIN: vox
!!!EED: Helmut Schaffrath
!!!EEV: 1.0
!!@@COMMENT:"E.M. Arndt 1813. In Arndt’s Gedichten II. Theil 158. — Die 2 Schlußzeilen stehen hier nach dem Allgem. deutschen (1858) 
!! und nach dem Reichs-Rommersbuche (1885). "
!!@@END:
!!Text: E.M. Arndt
!!!URL-scan: https://archive.org/details/BoehmeVtLieder1895/page/n33/mode/2up
!!!ENC: Anna Maria Matuszewska
!!!EEV: 2024/13/06
*-	*-
